X: 735
T: Swab the Decks
N: Pub: J. Walsh, London, 1748
Z: 2012 John Chambers <jc:trillian.mit.edu>
S: 4: ACMV  http://archive.org/details/acompositemusicv01rugg p.3:19
M: C|
L: 1/8
K: G
% - - - - - - - - - - - - - - - - - - - - - - - - -
V: 1
|: GB- B(d/c/) BdBA | GB- B(d/c/) Bdgd | GB- B(d/c/) BdBG | ecBA G2G,2 :|
|: Bddg dgdc | Bddg faAc | Bddg dgdB | ecBA G2G,2 :|
% - - - - - - - - - - - - - - - - - - - - - - - - -
V: 2 clef=bass middle=d
|: g2G2 g2d2 | g2G2 g2d2 | g2G2 g2B2 | c2d2 g2G2 :|
|: g4 G4 | g4 d2f2 | g4 G2B2 | c2d2 g2G2 :|
% - - - - - - - - - - - - - - - - - - - - - - - - -
%%begintext align
%% The 1st Cu. foot it to the 2d Man & hands round 3 .|
%% the same to the 2d Wo :|
%% Gallop down one Cu. up again & cast off .|.
%% Right & left at top :|:
%%endtext

%%sep 1 1 500
%%sep 1 1 500
